icon/gr/semantics.svg

<svg xmlns="http://www.w3.org/2000/svg" width="24" height="24"><path fill="none" stroke="#000" stroke-width="2" d="m2 17 10-5 10 5v4l-10-5-10 5v-4Zm0-9 10-5 10 5v4L12 7 2 12V8Z"/></svg>

<svg xmlns="http://www.w3.org/2000/svg" viewBox="0 0 24 24" height="1em" width="1em">
  <path fill="none" stroke="#000" stroke-width="2" d="M2,17 L12,12 L22,17 L22,21 L12,16 L2,21 L2,17 Z M2,8 L12,3 L22,8 L22,12 L12,7 L2,12 L2,8 Z"/>
</svg>
